dist/images/icons/icon-register.svg

<svg width="23" height="22" viewBox="0 0 23 22" fill="none" xmlns="http://www.w3.org/2000/svg">
<mask id="mask0_94_5293" style="mask-type:luminance" maskUnits="userSpaceOnUse" x="11" y="11" width="12" height="11">
<path d="M11.1704 11.1022H22.0682V22H11.1704V11.1022Z" fill="white"/>
</mask>
<g mask="url(#mask0_94_5293)">
<path d="M16.6585 11.1525C13.6653 11.1525 11.2378 13.5792 11.2378 16.5734C11.2378 19.5677 13.6643 21.9941 16.6585 21.9941C19.6528 21.9941 22.0795 19.5677 22.0795 16.5734C22.0795 13.5792 19.652 11.1525 16.6585 11.1525ZM19.6493 17.3437H17.4083V19.5703H15.8986V17.3437H13.6584V15.804H15.8986V13.5784H17.4083V15.804H19.6493V17.3437Z" fill="white"/>
</g>
<mask id="mask1_94_5293" style="mask-type:luminance" maskUnits="userSpaceOnUse" x="0" y="0" width="14" height="22">
<path d="M0 0H13.6223V21.3189H0V0Z" fill="white"/>
</mask>
<g mask="url(#mask1_94_5293)">
<path d="M9.95044 16.5726C9.95044 15.0345 10.4735 13.6204 11.3449 12.4886C11.2153 12.1864 11.1647 11.7237 11.3991 10.9997H11.3922C12.7273 9.60425 13.6128 7.35711 13.6128 5.14534C13.6128 1.74563 11.5191 -0.0369797 8.93117 -0.0369797C6.34054 -0.0369797 4.26181 1.74563 4.26181 5.14534C4.26181 7.36589 5.14087 9.62154 6.48394 11.0152C7.00702 12.4088 6.07182 12.9257 5.8752 12.9994C3.16511 13.994 -0.0153809 15.8082 -0.0153809 17.5996C-0.0153809 18.0831 -0.0153809 17.7909 -0.0153809 18.2701C-0.0153809 20.7104 4.64467 21.2651 8.95777 21.2651C9.90415 21.2651 10.8606 21.2369 11.782 21.1699C10.6494 19.9678 9.95044 18.3534 9.95044 16.5726Z" fill="white"/>
</g>
</svg>

<svg width="23" height="22" fill="none" xmlns="http://www.w3.org/2000/svg"><mask id="mask0_94_5293" style="mask-type:luminance" maskUnits="userSpaceOnUse" x="11" y="11" width="12" height="11"><path d="M11.17 11.102h10.898V22H11.17V11.102z" fill="#fff"/></mask><g mask="url(#mask0_94_5293)"><path d="M16.659 11.152a5.421 5.421 0 100 10.842 5.421 5.421 0 000-10.841zm2.99 6.192h-2.24v2.226h-1.51v-2.226h-2.24v-1.54h2.24v-2.226h1.51v2.226h2.24v1.54z" fill="#fff"/></g><mask id="mask1_94_5293" style="mask-type:luminance" maskUnits="userSpaceOnUse" x="0" y="0" width="14" height="22"><path d="M0 0h13.622v21.319H0V0z" fill="#fff"/></mask><g mask="url(#mask1_94_5293)"><path d="M9.95 16.573a6.67 6.67 0 011.395-4.084c-.13-.303-.18-.765.054-1.49h-.007c1.335-1.395 2.22-3.642 2.22-5.854 0-3.4-2.093-5.182-4.68-5.182-2.591 0-4.67 1.783-4.67 5.182 0 2.22.879 4.477 2.222 5.87.523 1.394-.412 1.91-.609 1.984-2.71.995-5.89 2.81-5.89 4.6v.671c0 2.44 4.66 2.995 8.973 2.995.946 0 1.903-.028 2.824-.095a6.682 6.682 0 01-1.832-4.597z" fill="#fff"/></g></svg>
